packages/assets/static/images/icons/campfire.svg

<svg width="24" height="24" viewBox="0 0 24 24" xmlns="http://www.w3.org/2000/svg" fill="currentColor" aria-hidden="true"> <path d="M21.3097 21.3192C21.2409 21.552 21.0987 21.7564 20.9042 21.9017C20.7097 22.047 20.4734 22.1255 20.2307 22.1254C20.1228 22.1253 20.0154 22.1098 19.9119 22.0795L11.9807 19.7358L4.04941 22.0795C3.94587 22.1098 3.83855 22.1253 3.73066 22.1254C3.46009 22.1256 3.19854 22.0282 2.99395 21.8512C2.78935 21.6741 2.65541 21.4292 2.61669 21.1615C2.57796 20.8937 2.63704 20.6209 2.78309 20.3932C2.92915 20.1654 3.15239 19.9979 3.41191 19.9214L8.01035 18.5629L3.41191 17.2045C3.13575 17.1118 2.90631 16.9156 2.77186 16.6572C2.6374 16.3988 2.60842 16.0984 2.69101 15.819C2.7736 15.5397 2.96132 15.3033 3.21467 15.1595C3.46802 15.0158 3.76725 14.9759 4.04941 15.0483L11.9807 17.392L19.9119 15.0483C20.0552 15.0002 20.2068 14.9814 20.3575 14.9932C20.5082 15.005 20.655 15.047 20.7891 15.1168C20.9232 15.1866 21.0419 15.2827 21.138 15.3994C21.2342 15.516 21.3058 15.6509 21.3487 15.7958C21.3915 15.9408 21.4047 16.0929 21.3875 16.2431C21.3703 16.3933 21.3229 16.5385 21.2483 16.67C21.1737 16.8015 21.0734 16.9166 20.9533 17.0084C20.8332 17.1002 20.6958 17.1669 20.5494 17.2045L15.951 18.5629L20.5494 19.9214C20.6911 19.9632 20.8232 20.0326 20.9381 20.1255C21.053 20.2184 21.1485 20.333 21.2191 20.4628C21.2897 20.5926 21.3341 20.735 21.3496 20.882C21.3652 21.0289 21.3516 21.1775 21.3097 21.3192ZM5.98066 9.75045C5.98066 5.00764 11.2241 2.13045 11.4472 2.00951C11.6112 1.92122 11.7945 1.875 11.9807 1.875C12.1669 1.875 12.3502 1.92122 12.5141 2.00951C12.7372 2.13045 17.9807 5.00764 17.9807 9.75045C17.9807 11.3417 17.3485 12.8679 16.2233 13.9931C15.0981 15.1183 13.572 15.7504 11.9807 15.7504C10.3894 15.7504 8.86324 15.1183 7.73802 13.9931C6.6128 12.8679 5.98066 11.3417 5.98066 9.75045ZM11.9807 13.5004C12.279 13.5004 12.5652 13.3819 12.7762 13.1709C12.9871 12.96 13.1057 12.6738 13.1057 12.3754C13.1057 11.7689 12.8516 11.1989 12.3557 10.6814C12.238 10.5618 12.1128 10.45 11.9807 10.3467C11.8487 10.4503 11.7235 10.562 11.6057 10.6814C11.106 11.1989 10.8557 11.7689 10.8557 12.3754C10.8557 12.6738 10.9742 12.96 11.1852 13.1709C11.3961 13.3819 11.6823 13.5004 11.9807 13.5004ZM8.23066 9.75045C8.22996 10.3754 8.38631 10.9905 8.68535 11.5392C9.13628 9.19545 11.3722 8.04701 11.4772 7.99451C11.6335 7.9163 11.8059 7.87558 11.9807 7.87558C12.1554 7.87558 12.3278 7.9163 12.4841 7.99451C12.5891 8.04701 14.8278 9.19264 15.276 11.5392C15.575 10.9905 15.7314 10.3754 15.7307 9.75045C15.7307 7.09357 13.13 5.08076 11.9807 4.32045C10.8322 5.07982 8.23066 7.09357 8.23066 9.75045Z"/> </svg>

<svg viewBox="0 0 24 24" xmlns="http://www.w3.org/2000/svg" aria-hidden="true" fill="currentColor"><path d="M21.31 21.32a1.125 1.125 0 0 1-1.398.76l-7.931-2.344-7.932 2.343q-.155.046-.318.046a1.125 1.125 0 0 1-.32-2.204l4.6-1.358-4.6-1.358a1.125 1.125 0 0 1 .638-2.157l7.932 2.344 7.93-2.344a1.125 1.125 0 1 1 .638 2.156l-4.598 1.359 4.598 1.358a1.124 1.124 0 0 1 .76 1.398M5.98 9.75c0-4.742 5.244-7.62 5.467-7.74a1.13 1.13 0 0 1 1.067 0c.223.12 5.467 2.998 5.467 7.74a6 6 0 0 1-12 0m6 3.75a1.125 1.125 0 0 0 1.126-1.125c0-.606-.254-1.176-.75-1.694a4 4 0 0 0-.375-.334 4 4 0 0 0-.375.334c-.5.518-.75 1.088-.75 1.694A1.125 1.125 0 0 0 11.98 13.5M8.23 9.75c0 .625.156 1.24.455 1.79.451-2.345 2.687-3.493 2.792-3.545a1.13 1.13 0 0 1 1.007 0c.105.052 2.344 1.198 2.792 3.544a3.7 3.7 0 0 0 .455-1.789c0-2.656-2.601-4.67-3.75-5.43-1.149.76-3.75 2.774-3.75 5.43"/></svg>
